X: 76
T:Dennis Crowther's No 3
M:4/4
L:1/8
Q:1/8=200
K:G
(3Bdg | E2 D2 D2 (3Bdg | F2 E2 E2 AG | 
FGAB cBAF | AGFE D2 (3Bdg | E2 D2 D2 (3Bdg |
F2 E2 E2 AG | FGAB cBAF | A2 G2 G4 :||
d2 BG D2 GB | d2 cB c4 | c2 FE D2 FA |
c2 BA B4 | d2 BG D2 GB | d2 cB c4 | 
cBAG FDEF | A2 G2 G4 :||
